X: 613
U:~=!turn!
M:C|
L:1/8
K:A dorian
d | {/f}g2 (bg) Taf{gf}ed | {gf}edef {/f}gdBG | {ef}g2 (bg) Taf{ge}ed | {gf}edef {/f}g2 (ga) |
(ba){/f}gf {/f}(gf){gf}ed | {/f}edef {/f}gdBG | {AB}cBcd ef{/f}ge | {/^c}dB{/F}GB {cB}A2 {/F}G |]


